coco/_inc/system.svg

<svg xmlns="http://www.w3.org/2000/svg"><g fill="#fff"><path d="m476.729 123.203h49.262l74.009-123.203h-49.245z"/><g stroke-width="1.11043"><path d="m192.538 33.612v67.134h40.281c12.53-2.055 19.696-9.075 22.422-20.14.025-8.959.005-17.895 0-26.854-2.726-11.065-9.892-18.085-22.422-20.14zm15.754 13.471h17.858c5.609.995 10.931 2.754 13.472 11.189l-.045 17.903c-2.563 8.423-7.863 10.194-13.472 11.189h-17.857z"/><path d="m20.159 100.76v-51.453h-20.153l-.006-15.661h62.701l-6.722 15.661-15.673.006v51.447z"/><path d="m69.414 33.657-24.616 67.089h20.185l7.788-24.571 7.832 11.189h13.427l4.476 13.382h20.319l-24.795-67.089zm12.219 17.857 7.921 20.185h-15.664z"/><path d="m120.867 100.76v-67.114h24.669l24.626 49.24v-49.24h15.674l-.013 67.114h-24.622l-24.629-49.198-.007 49.198z"/><path d="m273.129 69.479-26.847-35.833h20.135l14.602 22.339 14.531-22.339h22.348l-26.931 35.721.05 31.393h-17.87z"/></g><path d="m412.059 123.203h49.262l74.009-123.203h-49.245z"/><path d="m347.389 123.203h49.262l74.009-123.203h-49.246z"/></g></svg>

<?xml version="1.0" encoding="utf-8"?>
<svg version="1.1" xmlns="http://www.w3.org/2000/svg">
  <g>
    <path id="path3999-4" d="M 476.729 123.203 L 525.991 123.203 L 600 0 L 550.755 0 L 476.729 123.203 Z" style="fill-opacity: 1; stroke-opacity: 1; fill: rgb(255, 255, 255);"/>
    <path id="path3912-8" d="M 192.538 33.612 L 192.538 100.746 L 232.819 100.746 C 245.349 98.691 252.515 91.671 255.241 80.606 C 255.266 71.647 255.246 62.711 255.241 53.752 C 252.515 42.687 245.349 35.667 232.819 33.612 L 192.538 33.612 Z M 208.292 47.083 L 226.15 47.083 C 231.759 48.078 237.081 49.837 239.622 58.272 L 239.577 76.175 C 237.014 84.598 231.714 86.369 226.105 87.364 L 208.248 87.364 L 208.292 47.083 Z" style="fill-opacity: 1; stroke-width: 1.11043px; stroke-linecap: butt; stroke-linejoin: miter; stroke-opacity: 1; fill: rgb(255, 255, 255);"/>
    <path id="path3896" d="M 20.159 100.76 L 20.159 49.307 L 0.006 49.307 L 0 33.646 L 62.701 33.646 L 55.979 49.307 L 40.306 49.313 L 40.306 100.76 L 20.159 100.76 Z" style="fill-opacity: 1; stroke-width: 1.11043px; stroke-linecap: butt; stroke-linejoin: miter; stroke-opacity: 1; fill: rgb(255, 255, 255);"/>
    <path id="path3900" d="M 69.414 33.657 L 44.798 100.746 L 64.983 100.746 L 72.771 76.175 L 80.603 87.364 L 94.03 87.364 L 98.506 100.746 L 118.825 100.746 L 94.03 33.657 L 69.414 33.657 Z M 81.633 51.514 L 89.554 71.699 L 73.89 71.699 L 81.633 51.514 Z" style="fill-opacity: 1; stroke-width: 1.11043px; stroke-linecap: butt; stroke-linejoin: miter; stroke-opacity: 1; fill: rgb(255, 255, 255);"/>
    <path id="path3908" d="M 120.867 100.76 L 120.867 33.646 L 145.536 33.646 L 170.162 82.886 L 170.162 33.646 L 185.836 33.646 L 185.823 100.76 L 161.201 100.76 L 136.572 51.562 L 136.565 100.76 L 120.867 100.76 Z" style="fill-opacity: 1; stroke-width: 1.11043px; stroke-linecap: butt; stroke-linejoin: miter; stroke-opacity: 1; fill: rgb(255, 255, 255);"/>
    <path id="path3991" d="M 273.129 69.479 L 246.282 33.646 L 266.417 33.646 L 281.019 55.985 L 295.55 33.646 L 317.898 33.646 L 290.967 69.367 L 291.017 100.76 L 273.147 100.76 L 273.129 69.479 Z" style="fill-opacity: 1; stroke-width: 1.11043px; stroke-linecap: butt; stroke-linejoin: miter; stroke-opacity: 1; fill: rgb(255, 255, 255);"/>
    <path id="path3999-4-5" d="M 412.059 123.203 L 461.321 123.203 L 535.33 0 L 486.085 0 L 412.059 123.203 Z" style="fill-opacity: 1; fill: rgb(255, 255, 255);"/>
    <path id="path3999-4-5-7" d="M 347.389 123.203 L 396.651 123.203 L 470.66 0 L 421.414 0 L 347.389 123.203 Z" style="fill-opacity: 1; stroke-opacity: 1; fill: rgb(255, 255, 255);"/>
  </g>
</svg>
